<?xml version="1.0" encoding="UTF-8"?>
<map version="1.10" tiledversion="1.12.2" orientation="orthogonal" renderorder="left-up" width="25" height="16" tilewidth="32" tileheight="32" infinite="0" nextlayerid="8" nextobjectid="1">
 <tileset firstgid="1" source="../../../../main-plains.tsx"/>
 <tileset firstgid="1513" source="../../../../waters.tsx"/>
 <tileset firstgid="2153" source="../../../../decorations.tsx"/>
 <tileset firstgid="2476" source="../../../../basiccamp.tsx"/>
 <layer id="1" name="ground" width="25" height="16">
  <data encoding="csv">
969,1654,1655,969,969,969,969,969,969,969,969,969,969,969,969,969,969,969,969,969,969,969,969,969,969,
1673,969,969,1676,969,969,969,969,969,969,2029,858,969,2032,969,969,969,969,969,969,969,969,969,969,969,
1693,969,969,1696,969,852,969,969,969,969,969,969,969,969,969,969,969,969,969,969,852,969,969,969,969,
432,432,432,432,432,969,969,969,969,969,969,969,969,969,969,969,969,969,969,969,969,858,969,969,969,
432,432,432,432,432,969,969,969,969,969,969,1580,1580,969,969,969,969,858,969,969,969,969,969,969,969,
969,969,969,969,969,969,969,969,969,969,969,1580,1580,969,969,969,426,380,380,380,383,969,969,969,969,
969,969,969,969,969,852,969,969,969,858,969,969,969,969,969,852,427,465,465,465,425,969,852,969,969,
969,969,969,969,969,969,969,969,969,969,969,1580,1580,969,969,969,549,549,549,550,471,969,969,969,969,
969,969,969,969,969,969,969,969,969,969,969,969,969,969,969,969,969,969,969,969,969,969,969,969,969,
969,969,969,969,969,969,969,969,969,969,969,969,969,969,1180,969,969,969,969,969,969,969,969,969,969,
969,969,969,969,969,969,969,969,969,969,969,969,969,969,969,969,969,969,969,858,969,969,969,969,969,
969,969,969,969,969,969,969,969,969,852,969,969,969,969,969,969,969,969,969,969,969,969,969,858,969,
969,969,969,969,969,969,969,969,969,969,969,969,969,969,969,969,969,969,969,969,969,969,969,969,969,
969,969,969,969,969,969,969,969,969,969,969,969,969,969,969,969,852,858,969,969,969,969,969,969,969,
1015,969,969,969,858,969,969,969,969,969,969,969,969,969,969,969,969,969,969,969,969,969,852,969,969,
1057,969,969,969,969,969,969,969,969,969,969,969,969,969,969,969,969,969,969,969,969,969,969,969,969
</data>
 </layer>
 <layer id="2" name="waterBlocked" width="25" height="16">
  <properties>
   <property name="blocked" type="bool" value="true"/>
  </properties>
  <data encoding="csv">
1575,0,0,1575,0,0,0,0,0,0,0,0,0,0,0,0,0,0,0,0,0,0,0,0,0,
0,0,0,0,1644,0,0,0,0,0,0,2094,2095,0,0,0,0,0,0,0,0,0,0,0,0,
0,0,0,0,1644,0,0,0,0,0,2049,2114,2115,2052,0,0,0,0,0,0,0,0,0,0,0,
1713,0,0,1716,0,0,0,0,0,0,2044,2134,2135,2047,0,0,0,0,0,0,0,0,0,0,0,
1575,0,0,1575,0,0,0,0,0,0,0,1579,1579,0,0,0,0,0,0,0,0,0,0,0,0,
0,0,0,0,0,0,0,0,0,0,0,0,0,0,0,0,0,0,0,0,0,0,0,0,0,
0,0,0,0,0,0,0,0,0,0,0,0,0,0,0,0,0,0,0,0,0,0,0,0,0,
0,0,0,0,0,0,0,0,0,0,0,1579,1579,0,0,0,0,0,0,0,0,0,0,0,0,
0,0,0,0,0,0,0,0,0,0,0,1579,1579,0,0,0,0,0,0,0,0,0,0,0,0,
0,0,0,0,0,0,0,0,0,0,0,1580,1580,0,0,0,0,0,0,0,0,0,0,0,0,
0,0,0,0,0,0,0,0,0,0,0,1580,1580,0,0,0,0,0,0,0,0,0,0,0,0,
0,0,0,0,0,0,0,0,0,0,0,1579,1580,0,0,0,0,0,0,0,0,0,0,0,0,
0,0,0,0,0,0,0,0,0,0,0,0,0,0,0,0,0,0,0,0,0,0,0,0,0,
0,0,0,0,0,0,0,0,0,0,0,1579,1579,0,0,0,0,0,0,0,0,0,0,0,0,
0,0,0,0,0,0,0,0,0,0,0,0,1579,0,0,0,0,0,0,0,0,0,0,0,0,
0,0,0,0,0,0,0,0,0,0,0,0,1579,1579,0,0,0,0,0,0,0,0,0,0,0
</data>
 </layer>
 <layer id="4" name="deco" width="25" height="16">
  <properties>
   <property name="blocked" type="bool" value="true"/>
  </properties>
  <data encoding="csv">
0,0,0,0,0,0,0,0,0,0,0,0,0,0,0,0,0,0,0,0,0,0,2725,2726,2727,
0,0,0,0,0,0,0,0,0,0,0,0,0,0,0,2425,2426,0,0,0,0,0,2740,2741,2742,
0,0,0,0,0,2247,2248,0,0,0,0,0,0,0,0,2442,2443,2247,2248,0,0,2557,2558,2756,2757,
0,0,0,0,0,0,0,0,0,0,0,0,0,0,0,0,0,0,0,0,0,0,0,0,0,
0,0,0,0,0,0,0,0,0,0,0,2446,2447,0,0,0,0,0,0,0,0,0,0,0,0,
0,0,0,0,0,0,0,0,0,0,0,0,0,0,0,0,0,0,0,0,0,0,0,0,0,
0,0,0,0,0,0,0,0,0,0,0,0,0,0,0,0,0,0,0,0,0,0,0,0,0,
0,0,0,0,0,0,0,0,0,0,0,0,0,0,0,0,0,0,0,0,0,0,0,0,0,
0,0,0,0,0,0,0,0,0,0,0,0,0,0,0,0,0,0,0,0,0,0,0,0,0,
0,0,0,0,0,0,0,0,0,0,0,0,2414,0,0,0,0,0,0,0,0,0,0,0,0,
0,0,0,0,0,0,0,0,0,0,0,0,0,0,0,0,0,0,0,0,0,0,0,0,0,
0,0,0,0,0,0,0,0,0,0,0,0,0,0,0,0,0,0,0,0,0,0,0,0,0,
0,0,0,0,0,0,0,0,0,0,0,0,0,0,0,0,0,0,0,0,0,0,0,2357,2358,
0,2717,0,0,0,0,0,0,0,0,0,0,0,0,0,0,0,0,0,0,0,0,0,2720,2721,
2731,2732,2733,2364,0,0,0,0,0,0,2398,2399,0,0,0,0,0,0,0,2366,2367,0,2734,2735,2736,
2746,2747,2748,0,0,0,0,0,0,0,2415,2416,2410,0,0,0,0,0,0,0,0,0,2749,2750,2751
</data>
 </layer>
 <layer id="7" name="Calque de Tuiles 6" width="25" height="16">
  <data encoding="csv">
0,0,0,0,0,0,0,0,0,0,1593,1579,1579,1557,0,0,0,0,0,0,0,0,0,0,0,
0,0,0,0,0,0,0,0,0,0,0,0,0,0,0,0,0,0,0,0,0,0,0,0,0,
0,0,0,0,0,0,0,0,0,0,0,0,0,0,0,0,0,0,0,0,0,0,0,0,0,
0,0,0,0,0,0,0,0,0,0,0,0,0,0,0,0,0,0,0,0,0,0,0,0,0,
0,0,0,0,0,0,0,0,0,0,0,0,0,0,0,0,0,0,0,0,0,0,0,0,0,
0,0,0,0,0,0,0,0,0,0,0,0,0,0,0,0,0,0,0,0,0,0,0,0,0,
0,0,0,0,0,0,0,0,0,0,0,0,0,0,0,0,0,0,0,0,0,0,0,0,0,
0,0,0,0,0,0,0,0,0,0,0,0,0,0,0,0,0,0,0,0,0,0,0,0,0,
0,0,0,0,0,0,0,0,0,0,1533,0,0,1557,0,0,0,0,0,0,0,0,0,0,0,
0,0,0,0,0,0,0,0,0,0,1553,0,0,1557,0,0,0,0,0,0,0,0,0,0,0,
0,0,0,0,0,0,0,0,0,0,1573,0,0,1577,0,0,0,0,0,0,0,0,0,0,0,
0,0,0,0,0,0,0,0,0,0,1593,0,0,1597,0,0,0,0,0,0,0,0,0,0,0,
0,0,0,0,0,0,0,0,0,0,0,0,0,0,0,0,0,0,0,0,0,0,0,0,0,
0,0,0,0,0,0,0,0,0,0,1593,0,0,1577,0,0,0,0,0,0,0,0,0,0,0,
0,0,0,0,0,0,0,0,0,0,0,0,0,1597,0,0,0,0,0,0,0,0,0,0,0,
0,0,0,0,0,0,0,0,0,0,0,0,0,0,1597,0,0,0,0,0,0,0,0,0,0
</data>
 </layer>
 <layer id="5" name="ponts" width="25" height="16">
  <data encoding="csv">
0,0,0,0,0,0,0,0,0,0,0,2395,2396,0,0,0,0,0,0,0,0,0,0,0,0,
0,0,0,0,0,0,0,0,0,0,0,0,0,0,0,0,0,0,0,0,0,0,0,0,0,
0,0,0,0,0,0,0,0,0,0,0,0,0,0,0,0,0,0,0,0,0,568,568,0,0,
0,2320,2320,0,0,0,0,0,0,0,0,0,0,0,0,0,0,0,0,0,0,0,0,0,0,
0,2337,2337,0,0,0,0,2463,0,0,578,579,580,581,0,0,0,0,0,0,0,0,0,2280,2280,
0,2354,2354,0,0,0,0,0,0,0,620,621,622,623,0,566,566,566,566,566,0,0,0,2280,2280,
0,0,0,0,0,0,0,0,0,0,662,663,664,665,0,566,566,566,566,566,0,0,0,2280,2280,
0,2463,0,0,0,0,0,0,0,0,704,705,706,707,0,566,566,566,566,566,0,0,0,2280,2280,
0,0,0,0,0,0,0,0,0,0,0,0,0,0,0,0,0,0,566,0,0,0,0,2280,2280,
2463,0,0,0,0,0,0,0,0,0,0,0,0,0,0,0,0,0,0,0,0,0,0,0,2280,
0,0,0,0,0,0,0,0,0,0,0,0,0,0,0,0,0,0,0,0,0,0,0,0,0,
2464,0,0,0,0,0,0,0,0,0,0,0,0,0,0,2464,0,0,0,0,0,0,0,0,0,
0,0,0,0,0,0,0,0,0,0,2371,2372,2372,2373,0,0,0,0,0,0,0,0,0,0,0,
568,568,2718,0,0,0,0,0,0,2470,0,0,0,0,0,0,0,0,0,0,0,0,0,0,0,
568,568,568,0,568,0,0,0,0,0,0,0,0,0,0,0,0,0,0,0,0,0,0,0,0,
568,568,568,0,568,0,0,0,0,0,0,0,0,0,0,0,0,0,0,0,0,0,0,0,0
</data>
 </layer>
 <layer id="6" name="herbs" width="25" height="16">
  <data encoding="csv">
0,0,0,0,1279,2213,2214,0,0,0,1357,0,0,0,0,0,0,2213,2214,0,0,0,0,0,0,
0,0,1279,2462,1361,2230,2231,0,0,0,1357,0,0,0,0,0,0,2230,2231,0,0,0,0,0,0,
0,0,0,0,1361,0,0,0,0,0,0,0,0,0,0,0,0,0,0,0,0,2154,2154,0,0,
0,0,0,0,1363,0,2459,0,0,0,0,0,0,0,0,0,0,0,0,0,0,0,0,0,0,
0,0,0,0,1279,0,0,0,0,0,0,0,0,0,0,0,0,0,0,0,0,0,0,0,2461,
1279,0,0,0,0,0,0,0,0,0,0,0,0,0,0,0,0,0,0,0,0,0,0,0,0,
0,0,0,0,0,0,0,0,0,0,0,0,0,0,0,0,1361,1357,1361,0,0,0,0,0,0,
0,0,0,0,2462,0,0,0,0,0,0,0,0,0,0,0,0,0,0,0,0,0,0,0,0,
0,0,2463,0,0,0,0,0,0,0,1357,0,0,1357,0,0,0,0,0,0,0,0,0,0,0,
0,0,0,2279,0,0,1362,0,0,0,2461,0,0,1198,0,0,0,0,0,2154,1362,1362,1362,2306,2307,
0,0,2295,2296,2297,0,1362,1357,0,0,0,0,0,2464,0,0,0,0,0,0,0,1362,1362,2323,2324,
0,0,2312,2313,2314,0,1362,1362,0,0,2462,0,0,2465,0,0,0,0,0,0,0,1362,1362,2340,2341,
0,0,2329,2330,2331,0,1362,1362,0,0,0,0,0,0,0,0,0,0,0,2332,2333,0,0,0,0,
0,0,2346,2347,2348,0,0,0,0,0,0,0,0,1234,0,0,0,0,0,2349,2350,0,0,0,0,
0,0,2363,0,2365,0,0,0,0,0,0,0,0,2464,1357,0,0,0,0,0,0,0,0,0,0,
0,0,0,2381,0,0,0,0,0,0,0,0,0,0,1357,0,0,0,0,0,0,0,0,0,0
</data>
 </layer>
</map>
